dist/img/svg/file.svg

<svg width="24" height="25" viewBox="0 0 24 25" fill="none" xmlns="http://www.w3.org/2000/svg">
<path d="M13.1667 3.5V8C13.1667 8.62132 13.689 9.125 14.3333 9.125H19M13.3668 3.5H7.33333C6.04467 3.5 5 4.50736 5 5.75V19.25C5 20.4926 6.04467 21.5 7.33333 21.5H16.6667C17.9553 21.5 19 20.4926 19 19.25V8.93198C19 8.33524 18.7542 7.76295 18.3166 7.34099L15.0168 4.15901C14.5792 3.73705 13.9857 3.5 13.3668 3.5Z" stroke="#919191"/>
</svg>

<svg width="24" height="25" viewBox="0 0 24 25" fill="none" xmlns="http://www.w3.org/2000/svg"><path d="M13.167 3.5V8c0 .621.522 1.125 1.166 1.125H19M13.367 3.5H7.333C6.045 3.5 5 4.507 5 5.75v13.5c0 1.243 1.045 2.25 2.333 2.25h9.334c1.288 0 2.333-1.007 2.333-2.25V8.932a2.21 2.21 0 00-.683-1.591l-3.3-3.182a2.378 2.378 0 00-1.65-.659z" stroke="#919191"/></svg>
